img/section2/icons/angle.svg

<svg xmlns="http://www.w3.org/2000/svg" xmlns:xlink="http://www.w3.org/1999/xlink" width="512px" height="512px" style="shape-rendering:geometricPrecision; text-rendering:geometricPrecision; image-rendering:optimizeQuality; fill-rule:evenodd; clip-rule:evenodd"><g><path style="opacity:0.995" fill="#1F628E" d="M 511.5,345.5 C 511.5,394.5 511.5,443.5 511.5,492.5C 510.373,493.122 509.373,493.955 508.5,495C 339.833,495.667 171.167,495.667 2.5,495C 1.62656,493.955 0.626561,493.122 -0.5,492.5C -0.5,334.5 -0.5,176.5 -0.5,18.5C 0.626561,17.8783 1.62656,17.045 2.5,16C 51.8333,15.3333 101.167,15.3333 150.5,16C 151.333,16.8333 152.167,17.6667 153,18.5C 153.5,126.499 153.667,234.499 153.5,342.5C 271.834,342.333 390.167,342.5 508.5,343C 509.373,344.045 510.373,344.878 511.5,345.5 Z M 13.5,29.5 C 55.5,29.5 97.5,29.5 139.5,29.5C 139.333,137.501 139.5,245.501 140,353.5C 140.833,354.333 141.667,355.167 142.5,356C 260.833,356.5 379.166,356.667 497.5,356.5C 497.5,398.167 497.5,439.833 497.5,481.5C 486.167,481.5 474.833,481.5 463.5,481.5C 463.667,457.831 463.5,434.164 463,410.5C 460.487,406.788 456.987,405.622 452.5,407C 451.667,407.833 450.833,408.667 450,409.5C 449.5,433.498 449.333,457.498 449.5,481.5C 440.167,481.5 430.833,481.5 421.5,481.5C 421.667,467.829 421.5,454.163 421,440.5C 418.487,436.788 414.987,435.622 410.5,437C 409.667,437.833 408.833,438.667 408,439.5C 407.5,453.496 407.333,467.496 407.5,481.5C 398.167,481.5 388.833,481.5 379.5,481.5C 379.667,467.829 379.5,454.163 379,440.5C 376.487,436.788 372.987,435.622 368.5,437C 367.667,437.833 366.833,438.667 366,439.5C 365.5,453.496 365.333,467.496 365.5,481.5C 356.167,481.5 346.833,481.5 337.5,481.5C 337.667,457.831 337.5,434.164 337,410.5C 334.487,406.788 330.987,405.622 326.5,407C 325.667,407.833 324.833,408.667 324,409.5C 323.5,433.498 323.333,457.498 323.5,481.5C 314.167,481.5 304.833,481.5 295.5,481.5C 295.667,467.829 295.5,454.163 295,440.5C 292.487,436.788 288.987,435.622 284.5,437C 283.667,437.833 282.833,438.667 282,439.5C 281.5,453.496 281.333,467.496 281.5,481.5C 272.167,481.5 262.833,481.5 253.5,481.5C 253.667,457.498 253.5,433.498 253,409.5C 248.667,405.5 244.333,405.5 240,409.5C 239.5,433.498 239.333,457.498 239.5,481.5C 230.167,481.5 220.833,481.5 211.5,481.5C 211.667,467.496 211.5,453.496 211,439.5C 206.667,435.5 202.333,435.5 198,439.5C 197.5,453.496 197.333,467.496 197.5,481.5C 188.167,481.5 178.833,481.5 169.5,481.5C 169.667,457.498 169.5,433.498 169,409.5C 164.667,405.5 160.333,405.5 156,409.5C 155.5,433.498 155.333,457.498 155.5,481.5C 146.167,481.5 136.833,481.5 127.5,481.5C 127.667,467.496 127.5,453.496 127,439.5C 122.667,435.5 118.333,435.5 114,439.5C 113.5,453.496 113.333,467.496 113.5,481.5C 80.1667,481.5 46.8333,481.5 13.5,481.5C 13.5,453.833 13.5,426.167 13.5,398.5C 37.169,398.667 60.8357,398.5 84.5,398C 88.5,393.667 88.5,389.333 84.5,385C 60.8357,384.5 37.169,384.333 13.5,384.5C 13.5,375.167 13.5,365.833 13.5,356.5C 27.1707,356.667 40.8374,356.5 54.5,356C 58.5,351.667 58.5,347.333 54.5,343C 40.8374,342.5 27.1707,342.333 13.5,342.5C 13.5,333.167 13.5,323.833 13.5,314.5C 27.1707,314.667 40.8374,314.5 54.5,314C 58.5,309.667 58.5,305.333 54.5,301C 40.8374,300.5 27.1707,300.333 13.5,300.5C 13.5,291.167 13.5,281.833 13.5,272.5C 37.169,272.667 60.8357,272.5 84.5,272C 88.5,267.667 88.5,263.333 84.5,259C 60.8357,258.5 37.169,258.333 13.5,258.5C 13.5,249.167 13.5,239.833 13.5,230.5C 27.1707,230.667 40.8374,230.5 54.5,230C 58.5,225.667 58.5,221.333 54.5,217C 40.8374,216.5 27.1707,216.333 13.5,216.5C 13.5,207.167 13.5,197.833 13.5,188.5C 37.169,188.667 60.8357,188.5 84.5,188C 88.5,183.667 88.5,179.333 84.5,175C 60.8357,174.5 37.169,174.333 13.5,174.5C 13.5,165.167 13.5,155.833 13.5,146.5C 27.1707,146.667 40.8374,146.5 54.5,146C 58.5,141.667 58.5,137.333 54.5,133C 40.8374,132.5 27.1707,132.333 13.5,132.5C 13.5,123.167 13.5,113.833 13.5,104.5C 37.169,104.667 60.8357,104.5 84.5,104C 88.5,99.6667 88.5,95.3333 84.5,91C 60.8357,90.5 37.169,90.3334 13.5,90.5C 13.5,81.1667 13.5,71.8333 13.5,62.5C 27.1707,62.6666 40.8374,62.4999 54.5,62C 58.5,57.6667 58.5,53.3333 54.5,49C 40.8374,48.5001 27.1707,48.3334 13.5,48.5C 13.5,42.1667 13.5,35.8333 13.5,29.5 Z M 59.5,430.5 C 68.9874,429.819 73.1541,434.153 72,443.5C 69.1034,448.155 64.9367,449.655 59.5,448C 54.8451,445.103 53.3451,440.937 55,435.5C 56.0591,433.341 57.5591,431.674 59.5,430.5 Z"></path></g><g><path style="opacity:0.927" fill="#0a0a0a" d="M 56.5,415.5 C 78.6458,414.145 88.8124,424.479 87,446.5C 81.5827,460.463 71.416,465.963 56.5,463C 40.371,455.973 35.5377,444.139 42,427.5C 45.5405,421.78 50.3739,417.78 56.5,415.5 Z M 59.5,430.5 C 57.5591,431.674 56.0591,433.341 55,435.5C 53.3451,440.937 54.8451,445.103 59.5,448C 64.9367,449.655 69.1034,448.155 72,443.5C 73.1541,434.153 68.9874,429.819 59.5,430.5 Z"></path></g></svg>

<svg xmlns="http://www.w3.org/2000/svg" width="512" height="512" style="shape-rendering:geometricPrecision;text-rendering:geometricPrecision;image-rendering:optimizeQuality;fill-rule:evenodd;clip-rule:evenodd"><path fill="#1F628E" d="M511.5 345.5v147a10.5 10.5 0 0 0-3 2.5q-253 1-506 0a10.5 10.5 0 0 0-3-2.5v-474a10.5 10.5 0 0 0 3-2.5q74-1 148 0l2.5 2.5q.75 161.998.5 324 177.5-.25 355 .5a10.5 10.5 0 0 0 3 2.5m-498-316h126q-.25 162.002.5 324l2.5 2.5q177.5.75 355 .5v125h-34q.25-35.504-.5-71-3.77-5.567-10.5-3.5l-2.5 2.5a2591 2591 0 0 0-.5 72h-28a840 840 0 0 0-.5-41q-3.77-5.567-10.5-3.5l-2.5 2.5a882 882 0 0 0-.5 42h-28a840 840 0 0 0-.5-41q-3.77-5.567-10.5-3.5l-2.5 2.5a882 882 0 0 0-.5 42h-28q.25-35.504-.5-71-3.77-5.567-10.5-3.5l-2.5 2.5a2591 2591 0 0 0-.5 72h-28a840 840 0 0 0-.5-41q-3.77-5.567-10.5-3.5l-2.5 2.5a882 882 0 0 0-.5 42h-28q.25-36.003-.5-72-6.5-6-13 0a2591 2591 0 0 0-.5 72h-28q.25-21.006-.5-42-6.5-6-13 0a882 882 0 0 0-.5 42h-28q.25-36.003-.5-72-6.5-6-13 0a2591 2591 0 0 0-.5 72h-28q.25-21.006-.5-42-6.5-6-13 0a882 882 0 0 0-.5 42h-100v-83q35.504.25 71-.5 6-6.5 0-13-35.496-.75-71-.5v-28q20.505.25 41-.5 6-6.5 0-13-20.495-.75-41-.5v-28q20.505.25 41-.5 6-6.5 0-13-20.495-.75-41-.5v-28q35.504.25 71-.5 6-6.5 0-13-35.496-.75-71-.5v-28q20.505.25 41-.5 6-6.5 0-13-20.495-.75-41-.5v-28q35.504.25 71-.5 6-6.5 0-13-35.496-.75-71-.5v-28q20.505.25 41-.5 6-6.5 0-13-20.495-.75-41-.5v-28q35.504.25 71-.5 6-6.5 0-13a2521 2521 0 0 0-71-.5v-28q20.505.25 41-.5 6-6.5 0-13-20.495-.75-41-.5zm46 401q14.23-1.021 12.5 13-4.345 6.982-12.5 4.5-6.983-4.345-4.5-12.5 1.59-3.239 4.5-5" style="opacity:.995"/><path fill="#0a0a0a" d="M56.5 415.5q33.218-2.032 30.5 31-8.126 20.945-30.5 16.5-24.193-10.541-14.5-35.5 5.31-8.58 14.5-12m3 15q-2.91 1.761-4.5 5-2.483 8.155 4.5 12.5 8.155 2.482 12.5-4.5 1.73-14.021-12.5-13" style="opacity:.927"/></svg>
